X: 39553
T: Teacher, The
R: jig
M: 6/8
K: Dmixolydian
|:~F3 GEA|DFA d2c|BGG edB|^cAA GFE|
~F3 GEA|DFA d2c|BGG ed^c|1 AB^c d2A:|2 AB^c d2=c||
BGG GdG|AFF FdF|~G3 EAG|FEF Ddc|
BGG GdG|AFF d2c|~B3 ed^c|AB^c d2c|
BGG GdG|AFF FdF|~G3 BGB|BAG Adc|
~B3 ^cB^c|d^cd ede|fed =cBA|GFE FAE||

